!!!COM: Palestrina, Giovanni Perluigi da
!!!OPR: Missa In duplicibus minoribus (I)
!!!OMD: Credo
!!!OTL: Et vitam
**kern	**kern	**kern	**kern	**kern
*Ibass	*Itenor	*Itenor	*Icalto	*Icant
!Bassus	!Tenor 2	!Tenor 1	!Altus	!Cantus
*clefF4	*clefGv2	*clefGv2	*clefG2	*clefG2
*k[]	*k[]	*k[]	*k[]	*k[]
*E:phr	*E:phr	*E:phr	*E:phr	*E:phr
*M4/2	*M4/2	*M4/2	*M4/2	*M4/2
=173	=173	=173	=173	=173
0r	1e	0r	0r	0r
.	1d	.	.	.
=174	=174	=174	=174	=174
1A	1.e	0r	0r	0r
1G#	.	.	.	.
.	2B	.	.	.
=175	=175	=175	=175	=175
2A	2c	0r	0e	0r
2E	4B	.	.	.
.	4A	.	.	.
2G	2B	.	.	.
2A	2c	.	.	.
=176	=176	=176	=176	=176
2F	2A	0r	1d	1a
2F	2A	.	.	.
1E	1B	.	2e	1g#
.	.	.	2B	.
=177	=177	=177	=177	=177
4AA	1.e	0r	0c	2a
4BB	.	.	.	.
4C	.	.	.	2e
4D	.	.	.	.
2E	.	.	.	2g
2F	2A	.	.	2a
=178	=178	=178	=178	=178
1D	1A	2r	1d	2f
.	.	2A	.	2f
1E	2r	1G#	2B	2e
.	[2e	.	2B	2e
=179	=179	=179	=179	=179
0r	4e]	2A	4c	4e
.	4d	.	4d	4f
.	2c	2E	4e	4g
.	.	.	4f	4a
.	2B	2G	4e	2b
.	.	.	4d	.
.	2A	2A	4c	[2cc
.	.	.	4B	.
=180	=180	=180	=180	=180
0r	2c	2F	1A	4cc]
.	.	.	.	4b
.	2d	2F	.	1a
.	1e	2.E	[1B	.
.	.	.	.	[2g
.	.	4F	.	.
=181	=181	=181	=181	=181
1E	1r	1G	1B]	2g]
.	.	.	.	4f
.	.	.	.	4e
1D	2r	1A	1d	2f
.	2A	.	.	2f
=182	=182	=182	=182	=182
1E	1G#	2r	2B	2e
.	.	2e	2B	2b
1AA	1A	1e	4A	2cc
.	.	.	4B	.
.	.	.	4c	[2a
.	.	.	4d	.
=183	=183	=183	=183	=183
2.C	1E	1c	0e	2a]
.	.	.	.	2.g
4D	.	.	.	.
2E	2G	2B	.	.
.	.	.	.	4f
2C	2A	[2A	.	[2e
=184	=184	=184	=184	=184
1D	1.F	2A]	1A	2e]
.	.	2D	.	4d
.	.	.	.	4c
1D	.	2.A	2r	2d
.	2F	.	[2A	2d
.	.	4B	.	.
=185	=185	=185	=185	=185
0AA	[0E	2.c	4A]	[0e
.	.	.	4G#	.
.	.	.	4A	.
.	.	4B	4B	.
.	.	2A	2c	.
.	.	2A	2c	.
=186	=186	=186	=186	=186
[0E	1E_	[0G#	[0B	1e_
.	1E_	.	.	1e_
=187	=187	=187	=187	=187
0E]	0E]	0G#]	0B]	0e]
=188	=188	=188	=188	=188
1E	0r	0r	0r	0r
1G	.	.	.	.
=189	=189	=189	=189	=189
0A	0r	1A	0r	1r
.	.	1c	.	1e
=190	=190	=190	=190	=190
1G	0r	1.d	1r	1g
[1F	.	.	1A	[1a
.	.	2c	.	.
=191	=191	=191	=191	=191
2F]	0r	2A	1c	2a]
2E	.	4c	.	2g
.	.	8B	.	.
.	.	8A	.	.
2.D	.	4B	[1d	2.f
.	.	4A	.	.
.	.	[2A	.	.
4C	.	.	.	4e
=192	=192	=192	=192	=192
1BB	0r	2A]	1d]	2.d
.	.	2G#	.	.
.	.	.	.	4e
2.AA	.	1A	[1c	2f
.	.	.	.	4e
4BB	.	.	.	4d
=193	=193	=193	=193	=193
4C	1E	2.G	2c]	4e
4D	.	.	.	4f
1E	.	.	4B	2.g
.	.	4F	4A	.
.	1G	1E	2B	.
.	.	.	.	4f
2C	.	.	[2c	[2e
=194	=194	=194	=194	=194
1F	1A	1r	2c]	2e]
.	.	.	2A	2d
1E	1G	2r	1B	2e
.	.	[2e	.	2b
=195	=195	=195	=195	=195
1r	1F	4e]	1A	2cc
.	.	8d	.	.
.	.	8c	.	.
.	.	2d	.	1a
2r	1E	1e	1B	.
2E	.	.	.	2g#
=196	=196	=196	=196	=196
2F	1D	[0A	1d	2a
1D	.	.	.	1f
.	1E	.	1r	.
2C#	.	.	.	[2e
=197	=197	=197	=197	=197
0D	0F	1A]	2r	2e]
.	.	.	2A	4d
.	.	.	.	4c
.	.	2r	4B	1d
.	.	.	4A	.
.	.	2A	[2A	.
=198	=198	=198	=198	=198
1r	0E	2c	2A]	2e
.	.	2B	2G#	2b
2.AA	.	2.e	4A	2cc
.	.	.	4B	.
.	.	.	4c	[2a
4BB	.	4d	4d	.
=199	=199	=199	=199	=199
4C	2r	2c	0e	2a]
4D	.	.	.	.
2E	2B	2B	.	2g#
1AA	2c	2A	.	1a
.	[2A	2c	.	.
=200	=200	=200	=200	=200
[0E	2A]	[0B	[0e	[0b
.	4G#	.	.	.
.	4F#	.	.	.
.	1G#	.	.	.
=201	=201	=201	=201	=201
1E_	[0G#	1B_	1e_	1b_
1E_	.	1B_	1e_	1b_
=202	=202	=202	=202	=202
0E]	0G#]	0B]	0e]	0b]
==	==	==	==	==
*-	*-	*-	*-	*-
!!!CDT: 1525/^1526/-1594/2/2
!!!OCY: Italia
!!!AGN: Mass (Paraphrase)
!!!AST: renaissance, vocal
!!!ASW: Gregorian Mass
!!!PWK: Masses, Book Mantuan I
!!!RNB: Cadence finals: A
!!!YOR: Le Opere Complete, v. 18, p. 42
!!!YOO: Rome, Italy: Fratelli Scalera
!!!END: 1992//
!!!EED: John Miller
!!!YEC: Copyright 2000, John Miller
!!!YEN: United States of America
!!!YEM: Rights to all derivative electronic formats reserved.
!!!YEM: Refer to licensing agreement for further details.
!!!YEM: This file must be accompanied by the licensing agreement.
!!!YEM: A copy of the licensing agreement may be found at http://www.music-cog.ohio-state.edu/HumdrumDatabases/Palestrina/license.txt
!!!EMD: converted to Humdrum by Bret Aarden
